X:1
T:Trip to the Cottage
M:6/8
L:1/8
R:jig
K:G
c|~d3 BGB|cBc AFD|DGG FGA|BGB ABc|
~d3 BGB|cBc AFD|DGG FGA| BGF GB:|
d|gfe d^cd|edc Bcd|ecA dBG|FAG FED|
gfe d^cd|edc Bcd|efg eag| fd^c def:|
